X: 50
T:Nottingham Knees Up !
% Nottingham Music Database
S:Chris Dewhurst (1980), via PR
M:4/4
L:1/4
K:D
A"(A7)"d f|"D"a3/2a/2 af|d3/2e/2 dB|"D"A4-|AA df|"D"a3/2a/2 ab|a3/2f/2 df|\
"A"e2 -"Em"e2|
"A"eA df|"D"a3/2a/2 ab|a3/2f/2 ed|"G"G4|Bd2B|"D"A2 "Bm"d2|"Em"e"/@>.5A"f2A|\
"D"d4-|"D"dd "D7"ef||
"G"g3/2g/2 ga|ge de|"G"ga2d|ga2d|"D"f3/2f/2 ^ef|"Bm"gf dA|"Em"e4-|
"A"eA df|"D"a3/2a/2 af|"D7"d3/2d/2 ed|"G"G4|Bd2B|"D"A2 "Bm"d2|"Em"e"/@>.5A"f2A\
|"D"d4-|d||


